src/images/skill/bushcraft/god.svg

<svg xmlns="http://www.w3.org/2000/svg" viewBox="0 0 512 512" style="height: 512px; width: 512px;"><g class="" transform="translate(0,0)" style=""><path d="M201.2 18.02c-7.5 18.43-14.9 39.97-36.4 53.59l-3.8 2.4-4.2-1.6c-7.5-2.85-13.7-7.31-18.9-12.42 1.2 32.51 3.3 65.11 5 97.81 24.3-17 44.8-27.6 69-36.7l33.6 42.4c-4.5 1.6-9.4 3.2-13.8 4.9l-6.3 70.6-20.5 21.8 39.5 22.6 51.9-21.4-23-19.4-8.9-73.3c-5-1.9-10.2-3.6-15.4-5.5 11.2-14.1 22.3-28.3 33.6-42.4 23.4 8.9 47.3 20.9 65 33.7-1.3-35.6-.6-71.97 2.2-109.21-7.7 5.32-15.5 10.38-23.1 14.56-13.2 7.15-24.9 12.69-37 10.98-14.2-2.03-23.5-13.27-31.7-24.64-7.2-9.95-13.7-20.75-19.5-28.77zM18.51 19.11c2.09 4.8 4.64 10.38 7.84 16.43 7.85 14.87 19.56 30.33 27.54 33.88 4.72 2.1 6.66 1.61 10.75-.37s9.39-6.25 16.15-10.67c9.22-6.03 22.01-11.36 38.61-9.63-.2-5.53-.3-11.06-.4-16.61l-.2-13.03zm112.29 0l4.9 8.27c6.2 10.39 13.9 20.83 23.3 26.18 10.7-8.47 16.4-20.65 22.1-34.45zm130.3 0c3.9 5.89 7.7 11.84 11.5 17.12 7.4 10.2 14.9 16.69 19.7 17.38 2.8.41 13.9-2.53 25.8-8.97 11.8-6.45 25.1-15.59 36.4-24.54l1.3-.99zm108.8 0c-1.4 15.51-2.7 32.08-3.5 45.64 15.6 3.2 31.9 12.6 46.9 10.08 11.1-2.08 22.1-12.72 35-22.71 8.7-8.17 19.3-4.28 29-6.67 9.2-4.48 12.9-17.72 15.8-26.34zM206 142.7c-28.4 11.4-51.1 26.7-70 44.7l7.4 13.9c20.3-17 43.2-33.7 72.6-46zm82.5.3l-10 12.6c29.4 12.3 52.3 29 72.6 46l7.4-13.9c-18.9-18-41.6-33.3-70-44.7zm-78.3 63.7l-51.6 19.7c-8.5-9-5.7-9.7-13.4-3.2.3 28.6-.3 57.3-2.9 86.4 11.4-3.7 23.6-7.7 35.6-11.9 12.5-4.3 24-8.3 34.4-12L176.1 265l31.9-33.8zm77 1.4l3.1 25.3 40.2 34-48.5 20c26.2 9.7 57.5 16.5 87.1 22.9-6.8-27.3-12-55-15.6-83.2-3.3-2.8-6.9-6-10-8.5l-7.6 8.1zm-28.7 89l-15.3 6.3-10.3-5.9c-12 4.4-29.3 10.5-49.1 17.3-16.7 5.7-33.5 11.2-48.3 15.8 13.5 2.6 27.6 4.6 41.3 5.5 26.6 1.8 51.3-1.3 66.3-11.2l5-3.3 5 3.3c17.5 11.6 45 14.1 73.3 11.2 14.4-1.4 28.8-4.2 42.2-7.4-36.5-7.7-77.2-16-110.1-31.6zm120.4 47.7c-32.6 7.4-65.2 13.4-96.4 8.9 17.1 24.2 17.7 65.9 14.2 94.1h-.7l58.3 46.2c-.9-4.4-1.6-8.9-1.9-13.3-.9-15.1 2.3-30.8 12.3-43.6l5-6.4 6.8 4.2c42.5 26.3 75.8 41.4 116.4 44.9-40.3-32.2-69.6-65.9-104.8-109.1-4.1-8.1-6.7-17.9-9.2-25.9zm-241.4 4.4c-.4 2.8-.4 5.5-2 7.8-33.2 54.5-59.53 70.3-113.53 105.7 34.78 4 70.98-1.9 92.33-18.1l13.7-10.4.7 17.2c-.4 25.1 9.1 27.9 22.1 43.4 13.5-9.1 24.6-13 31.1-17.1 12.1-11.4 13.7-20.4 15.2-32.3-4.8-27.8-5.2-67.9 10.7-91.5-10.4 1-21.3.9-32.2.2-12.7-.9-25.7-2.6-38.1-4.9z" fill="#fff" fill-opacity="1"></path></g></svg>

<svg xmlns="http://www.w3.org/2000/svg" viewBox="0 0 512 512" style="height: 512px; width: 512px;"><g class="" transform="translate(0,0)" style=""><g><path d="M201.2 18.02C193.7 36.45 186.3 57.99 164.8 71.61L161 74.01L156.8 72.41C149.3 69.56 143.1 65.1 137.9 59.99C139.1 92.5 141.2 125.1 142.9 157.8C167.2 140.8 187.7 130.2 211.9 121.1L245.5 163.5C241 165.1 236.1 166.7 231.7 168.4L225.4 239L204.9 260.8L244.4 283.4L296.3 262L273.3 242.6L264.4 169.3C259.4 167.4 254.2 165.7 249 163.8C260.2 149.7 271.3 135.5 282.6 121.4C306 130.3 329.9 142.3 347.6 155.1C346.3 119.5 347 83.13 349.8 45.89C342.1 51.21 334.3 56.27 326.7 60.45C313.5 67.6 301.8 73.14 289.7 71.43C275.5 69.4 266.2 58.16 258 46.79C250.8 36.84 244.3 26.04 238.5 18.02Z" class="" fill="#d9945a" fill-opacity="1"></path><path d="M18.51 19.11C20.6 23.91 23.15 29.49 26.35 35.54C34.2 50.41 45.91 65.87 53.89 69.42C58.61 71.52 60.55 71.03 64.64 69.05C68.73 67.07 74.03 62.8 80.79 58.38C90.01 52.35 102.8 47.02 119.4 48.75C119.2 43.22 119.1 37.69 119 32.14L118.8 19.11Z" class="" fill="#a6b9e5" fill-opacity="1"></path><path d="M130.8 19.11L135.7 27.38C141.9 37.77 149.6 48.21 159 53.56C169.7 45.09 175.4 32.91 181.1 19.11Z" class="" fill="#a6b9e5" fill-opacity="1"></path><path d="M261.1 19.11C265 25 268.8 30.95 272.6 36.23C280 46.43 287.5 52.92 292.3 53.61C295.1 54.02 306.2 51.08 318.1 44.64C329.9 38.19 343.2 29.05 354.5 20.1L355.8 19.11Z" class="" fill="#a6b9e5" fill-opacity="1"></path><path d="M369.9 19.11C368.5 34.62 367.2 51.19 366.4 64.75C382 67.95 398.3 77.35 413.3 74.83C424.4 72.75 435.4 62.11 448.3 52.12C457 43.95 467.6 47.84 477.3 45.45C486.5 40.97 490.2 27.73 493.1 19.11Z" class="" fill="#a6b9e5" fill-opacity="1"></path><path d="M206 142.7C177.6 154.1 154.9 169.4 136 187.4L143.4 201.3C163.7 184.3 186.6 167.6 216 155.3Z" class="selected" fill="#f8e71c" fill-opacity="1"></path><path d="M288.5 143L278.5 155.6C307.9 167.9 330.8 184.6 351.1 201.6L358.5 187.7C339.6 169.7 316.9 154.4 288.5 143Z" class="" fill="#f8e71c" fill-opacity="1"></path><path d="M210.2 206.7L158.6 226.4C150.1 217.4 152.9 216.7 145.2 223.2C145.5 251.8 144.9 280.5 142.3 309.6C153.7 305.9 165.9 301.9 177.9 297.7C190.4 293.4 201.9 289.4 212.3 285.7L176.1 265L208 231.2Z" class="" fill="#d9945a" fill-opacity="1"></path><path d="M287.2 208.1L290.3 233.4L330.5 267.4L282 287.4C308.2 297.1 339.5 303.9 369.1 310.3C362.3 283 357.1 255.3 353.5 227.1C350.2 224.3 346.6 221.1 343.5 218.6L335.9 226.7Z" class="" fill="#d9945a" fill-opacity="1"></path><path d="M258.5 297.1L243.2 303.4L232.9 297.5C220.9 301.9 203.6 308 183.8 314.8C167.1 320.5 150.3 326 135.5 330.6C149 333.2 163.1 335.2 176.8 336.1C203.4 337.9 228.1 334.8 243.1 324.9L248.1 321.6L253.1 324.9C270.6 336.5 298.1 339 326.4 336.1C340.8 334.7 355.2 331.9 368.6 328.7C332.1 321 291.4 312.7 258.5 297.1Z" class="" fill="#a6b9e5" fill-opacity="1"></path><path d="M378.9 344.8C346.3 352.2 313.7 358.2 282.5 353.7C299.6 377.9 300.2 419.6 296.7 447.8L296 447.8L354.3 494C353.4 489.6 352.7 485.1 352.4 480.7C351.5 465.6 354.7 449.9 364.7 437.1L369.7 430.7L376.5 434.9C419 461.2 452.3 476.3 492.9 479.8C452.6 447.6 423.3 413.9 388.1 370.7C384 362.6 381.4 352.8 378.9 344.8Z" class="" fill="#d9945a" fill-opacity="1"></path><path d="M137.5 349.2C137.1 352 137.1 354.7 135.5 357C102.3 411.5 75.97 427.3 21.97 462.7C56.75 466.7 92.95 460.8 114.3 444.6L128 434.2L128.7 451.4C128.3 476.5 137.8 479.3 150.8 494.8C164.3 485.7 175.4 481.8 181.9 477.7C194 466.3 195.6 457.3 197.1 445.4C192.3 417.6 191.9 377.5 207.8 353.9C197.4 354.9 186.5 354.8 175.6 354.1C162.9 353.2 149.9 351.5 137.5 349.2Z" class="" fill="#d9945a" fill-opacity="1"></path></g></g></svg>
